cssgg/performance.svg

<svg
  width="24"
  height="24"
  viewBox="0 0 24 24"
  fill="none"
  xmlns="http://www.w3.org/2000/svg"
>
  <path
    fill-rule="evenodd"
    clip-rule="evenodd"
    d="M11 9V13.1707C9.83481 13.5825 9 14.6938 9 16C9 17.6569 10.3431 19 12 19C13.6569 19 15 17.6569 15 16C15 14.6938 14.1652 13.5825 13 13.1707V9H11ZM11 16C11 15.4477 11.4477 15 12 15C12.5523 15 13 15.4477 13 16C13 16.5523 12.5523 17 12 17C11.4477 17 11 16.5523 11 16Z"
    fill="currentColor"
  />
  <path
    d="M12 5C15.866 5 19 8.13401 19 12V13H17V12C17 9.23858 14.7614 7 12 7C9.23858 7 7 9.23858 7 12V13H5V12C5 8.13401 8.13401 5 12 5Z"
    fill="currentColor"
  />
  <path
    fill-rule="evenodd"
    clip-rule="evenodd"
    d="M12 23C18.0751 23 23 18.0751 23 12C23 5.92487 18.0751 1 12 1C5.92487 1 1 5.92487 1 12C1 18.0751 5.92487 23 12 23ZM12 21C16.9706 21 21 16.9706 21 12C21 7.02944 16.9706 3 12 3C7.02944 3 3 7.02944 3 12C3 16.9706 7.02944 21 12 21Z"
    fill="currentColor"
  />
</svg>

<svg viewBox="0 0 24 24" xmlns="http://www.w3.org/2000/svg"><path fill-rule="evenodd" d="M11 9v4.17c-1.17.41-2 1.52-2 2.82 0 1.65 1.34 3 3 3 1.65 0 3-1.35 3-3 0-1.31-.84-2.42-2-2.83V8.98h-2Zm0 7c0-.56.44-1 1-1 .55 0 1 .44 1 1 0 .55-.45 1-1 1 -.56 0-1-.45-1-1Z"/><g><path d="M12 5c3.86 0 7 3.13 7 7v1h-2v-1c0-2.77-2.24-5-5-5 -2.77 0-5 2.23-5 5v1H5v-1c0-3.87 3.13-7 7-7Z"/><path fill-rule="evenodd" d="M12 23c6.07 0 11-4.93 11-11 0-6.08-4.93-11-11-11C5.92 1 1 5.92 1 12c0 6.07 4.92 11 11 11Zm0-2c4.97 0 9-4.03 9-9 0-4.98-4.03-9-9-9 -4.98 0-9 4.02-9 9 0 4.97 4.02 9 9 9Z"/></g></svg>
